!!!!SEGMENT: pl-wumfc--n44049_zarzycki-aleksander--spiewak-teskniacy-op-14-no-13.krn
!!!cenid: 18xx:4068
!!!COM: Zarzycki, Aleksander
!!!COM-rismID: pe41012579
!!!CDT:
!!!CNT:
!!!OTL: Śpiewak tęskniący Op. 14 No. 13
!!!PDT:
!!!AGN:
!!!SMS-siglum: PL-Wumfc
!!!SMS-shelfmark: N44049
!!!SMS-shelfwork: W
!!!SMS-variant:
!!!SMS-altvar:
!!!NIFC-rismSourceID: 1001177739
!!!NIFC-rismChildID: 1001177739
!!!NIFC-islandoraID: pl-wumfc:9485
!!!URL-pdf-islandora: https://repozytorium.nifc.pl/islandora/object/pl-wumfc%3A9485/datastream/PDF/view
!!!URL-scan: https://polish.musicsources.pl/pl/lokalizacje/galeria/druki-muzyczne/12490-spiewak-teskniacy @EN{Scan on Polish Music Sources Website} @PL{Skany w portalu Dziedzictwo Muzyki Polskiej w otwartym dostępie}
!!!ONB-nifc:
!!!AIN: 1 piano 1 soprn
!!!key: C
**kern	**kern	**dynam	**kern	**text	**dynam
*part2	*part2	*part2	*part1	*part1	*part1
*staff3	*staff2	*	*staff1	*staff1	*
*I"Fortepian.	*I"Fortepian.	*	*I"Śpiew.	*	*
*Ipiano	*Ipiano	*	*Isoprn	*	*
*ICklav	*ICklav	*	*ICvox	*	*
*IGacmp	*IGacmp	*	*IGsolo	*	*
*clefF4	*clefG2	*	*clefG2	*	*
*k[]	*k[]	*	*k[]	*	*
*C:	*C:	*	*C:	*	*
*M6/8	*M6/8	*	*M6/8	*	*
=1	=1	=1	=1	=1	=1
!!LO:TX:B:a:t=Moderato non troppo.
2.rGG	(>8eL 8E<'>/	pp	2.r	.	.
.	8e 8E<'>/	.	.	.	.
.	8eJ 8E<'>/	.	.	.	.
.	8eL 8E<'>/	.	.	.	.
.	8e 8E<'>/	.	.	.	.
.	8eJ 8E<'>/)	.	.	.	.
=2	=2	=2	=2	=2	=2
*^	*^	*^	*	*	*
8r	8rGG	(>8eL 8E<'>/	8ryy	.	.	2.r	.	.
!	!	!	!	!	!LO:HP:b=2	!	!	!
8E/L	(8FF#X\L	8e'/	(8A\L	<	<	.	.	.
8E/J	8GG#X\J	8e'/J	8B\J	.	.	.	.	.
!	!	!	!	!	!LO:HP:b=2	!	!	!
8E/L	8BB\L	8e'/L	8d\L	[ >	[ >	.	.	.
8E/	8.AA\	8e'/	8.c\	.	.	.	.	.
8E/J	.	8e'/J)	.	.	.	.	.	.
.	16GG#\Jk)	.	16B\Jk)	]	]	.	.	.
*	*	*	*	*v	*v	*	*	*
=3	=3	=3	=3	=3	=3	=3	=3
8E/	2.GG#X\	(8e'/L	2.B'\	.	2.r	.	.
8ryy	.	8e 8E<'/	.	.	.	.	.
8ryy	.	8eJ 8E<'/	.	.	.	.	.
4ryy	.	8eL 8E<'/	.	.	.	.	.
.	.	8e 8E<'/	.	.	.	.	.
8ryy	.	8eJ 8E<'/)	.	.	.	.	.
=4	=4	=4	=4	=4	=4	=4	=4
*	*	*	*	*^	*	*	*
8r	8r	(>8eL 8E'>/	8ryy	.	.	2.r	.	.
!	!	!	!	!	!LO:HP:b=2	!	!	!
8E/L	8FF#X\L	8e'/	(8A\L	<	<	.	.	.
8E/J	8GG#X\J	8e'/J	8B\J	.	.	.	.	.
!	!	!	!	!	!LO:HP:b=2	!	!	!
8E/L	8BB\L	8e'/L	8d\L	[ >	[ >	.	.	.
8E/	8.AA\	8e'/	8.c\	.	.	.	.	.
8E/J	.	8e'/J)	.	.	.	.	.	.
.	16GG#\Jk	.	16B\Jk)	]	]	.	.	.
*	*	*	*	*v	*v	*	*	*
!!LO:LB:g=original
=5	=5	=5	=5	=5	=5	=5	=5
8E/	2.GG#X\	(8e'/L	2.B\	.	2.r	.	.
8ryy	.	8e 8E<'/	.	.	.	.	.
8ryy	.	8eJ 8E<'/	.	.	.	.	.
4ryy	.	8eL 8E<'/	.	.	.	.	.
.	.	8e 8E<'/	.	.	.	.	.
8ryy	.	8eJ 8E<'/)	.	.	.	.	.
*v	*v	*	*	*	*	*	*
=6	=6	=6	=6	=6	=6	=6
!	!	!	!	!	!	!LO:DY:a
(4AA'\	(4c'/	8E</L	.	(>4e'/	Ni-	p
.	.	8E</	.	.	.	.
8GG#X'\	8B'/	8E</J	.	8e'/	-gdyż	.
8FF#X'\L	8A'/L	8E</L	.	8e'/	se-	.
8GG#'\	8B'/	8E</	.	8e'/	-rce	.
8BB'\J)	8d'/J)	8E</J	.	8e'/)	stę-	.
=7	=7	=7	=7	=7	=7	=7
2.AA\	8cL 8A/	4E</	.	(4e/	-sknio-	.
.	8c 8A/	.	.	.	.	.
.	.	.	.	8qg/	.	.
.	8cJ 8A/	8Fn</	.	8f/)	.	.
.	8cL 8A/	4.E</	.	4.e/	-ne	.
.	8c 8A/	.	.	.	.	.
.	8cJ 8A/	.	.	.	.	.
=8	=8	=8	=8	=8	=8	=8
(<4D 4DD\	(4B/	8A<L 8F</	<	8r	.	.
!	!	!	!	!	!	!LO:DY:a
.	.	8A< 8F</	.	8d/	mar	<
8C 8CC\	8c/	8A<J 8F</	.	8e/	mi-	.
4.BB 4.BBB\)	4.d/)	8A<L 8F</	[[	8f/	-nio-	.
.	.	8A< 8F</	.	8.b^\	-nych	[
.	.	8A<J 8F</	.	.	.	.
.	.	.	.	16a/	nie	.
!!LO:LB:g=original
=9	=9	=9	=9	=9	=9	=9
*^	*	*	*	*	*	*
4.ryy	4.EE\	(>8c'>/L	8A<L 8E</	<	4.a/	prze-	.
.	.	8d'>/	8B< 8A</	.	.	.	.
.	.	8d#X'>/J	8c<J 8A</	[[	.	.	.
8BB\L	4.EE\	4.e/)	8G#X</L	<	4g#X/	-śni!	.
8C\	.	.	8A</	[ >	.	.	.
8BB\J	.	.	8G#</J	]	8r	.	.
=10	=10	=10	=10	=10	=10	=10	=10
4.ryy	4.AA 4.AAA\	8cL 8A 8E</	4.ryy	.	4cc\	Wie-	.
.	.	8e 8c 8A/	.	.	.	.	.
.	.	8cJ 8A 8E</	.	.	8a/	-cznież	.
(>8D'>/L	4.AA\	(8f'>/L	8A\L	.	8a/	w je-	.
8E'>/	.	8e'>/	8A\	.	8gn/	-dną	.
8F'>/J)	.	8d'>/J)	8A\J	.	8f/	gdzieś	.
=11	=11	=11	=11	=11	=11	=11	=11
(4E/	2.AA\	(4c/	8A\L	.	(4e/	stro-	.
.	.	.	8A\	.	.	.	.
.	.	.	.	.	8qg/	.	.
8F/	.	8d/	8A\J	.	8f/)	.	.
8E/L	.	8c/L	8A\	.	4.e/	-nę	.
8D/	.	8B/	8ryy	.	.	.	.
8C/J)	.	8A/J)	8ryy	.	.	.	.
*v	*v	*	*	*	*	*	*
*	*v	*v	*	*	*	*
=12	=12	=12	=12	=12	=12
*ped	*	*	*	*	*
8EL 8EE\	8eL 8d 8G#X/	.	8r	.	.
8G#X 8E\	8e 8d 8B/	.	8g#X/	za-	<
8G#J 8E\	8eJ 8d 8B/	.	8a/	-cza-	.
*Xped	*	*	*	*	*
8AL 8E\	8fL 8d 8B/	<	8b\	-ru-	.
8A 8E\	(8b 8d/	.	8.dd^\	-je	.
8AJ 8E\	8ccJ 8d/	[[	.	.	.
.	.	.	16cc\	me	.
!!LO:LB:g=original
=13	=13	=13	=13	=13	=13
8G#XL 8E\	8ddL 8d\)	mf	8cc\	pie-	.
(8e 8d 8B'\	(8ee 8g#X'\	.	4b\	-śni?	.
8eJ 8d 8B'\)	8eeJ 8g#'\)	.	.	.	.
8eL 8d 8A#X^\	(8ffL 8g#^\	.	4r	.	.
8e 8d 8B\	8ee 8g#\	.	.	.	.
8eJ 8d 8B\	8eeJ 8g#\)	.	8r	.	.
=14	=14	=14	=14	=14	=14
*ped	*	*	*	*	*
8EL 8EE\	8eL 8d 8G#X/	.	8r	.	.
!	!	!	!	!	!LO:HP:a
8G#X 8E\	8e 8d 8B/	.	8g#X/	za-	<
8G#J 8E\	8eJ 8d 8B/	.	8a/	-cza-	.
*Xped	*	*	*	*	*
8AL 8E\	8fL 8d 8B/	.	8b\	-ru-	.
8A 8E\	(8b 8d/	.	8.dd^\	-je	[
8AJ 8E\	8ccJ 8d/	.	.	.	.
.	.	.	16cc\	me	.
=15	=15	=15	=15	=15	=15
!	!	!	!	!	!LO:HP:a
8G#XL 8E\	8ddL 8d\)	mf	8cc\	pie-	>
(8e 8d 8B'\	(8ee 8g#X'\	.	4b\	-śni?	]
8eJ 8d 8B'\)	8eeJ 8g#'\)	.	.	.	.
!	!LO:TX:i:a:t=P:problem:mixed beam	!	!	!	!
8eL 8d 8A#X\	(8ffL 8g#^\	.	4r	.	.
8e 8d 8B\	8ee 8g#\)	.	.	.	.
8EE\J	8e</J 8d</ 8G#X</ 8E</	.	8r	.	.
=16	=16	=16	=16	=16	=16
*^	*	*	*	*	*
4.AA\	2.AAA\	(>16E</LL	mf	4cc\	Jak	mf
.	.	16A</	.	.	.	.
.	.	16B</	.	.	.	.
.	.	16c</	.	.	.	.
.	.	16e</	.	8a/	świat	.
.	.	16E</JJ)	.	.	.	.
4.AA\	.	(>16F</LL	.	8dd\	dłu-	.
.	.	16A</	.	.	.	.
.	.	16B</	.	8ee\	-gi	.
.	.	16d</	.	.	.	.
.	.	16f</	.	8ff\	sze-	.
.	.	16A</JJ)	.	.	.	.
*v	*v	*	*	*	*	*
!!LO:PB:g=original
=17	=17	=17	=17	=17	=17
4.AA 4.AAA\	(>16E</LL	.	4.ee\	-ro-	.
.	16A</	.	.	.	.
.	16B</	.	.	.	.
.	16c</	.	.	.	.
.	16e</	.	.	.	.
.	16A</JJ)	.	.	.	.
4.C 4.CC\	(>16E</LL	.	4a/	-ki,	.
.	16A</	.	.	.	.
.	16B</	.	.	.	.
.	16c</	.	.	.	.
.	16e</	.	8r	.	.
.	16A</JJ)	.	.	.	.
=18	=18	=18	=18	=18	=18
[<4.EE\	(>16E</LL	.	4cc\	z lu-	.
.	16A</	.	.	.	.
.	16B</	.	.	.	.
.	16c</	.	.	.	.
.	16e</)	.	8e/	-tnią	.
.	(>16E</JJ	.	.	.	.
4.EE] 4.EEE\	16G#X</LL	.	8f#X/	mo-	.
.	16B</	.	.	.	.
.	16d</	.	8g#X/	-ją	.
.	16e</)	.	.	.	.
.	(>16E</	.	8cc\	po-	.
.	16G#</JJ	.	.	.	.
=19	=19	=19	=19	=19	=19
[<4.AAA\	16B</LL	.	4.b\	-dró-	.
.	16d</	.	.	.	.
.	16e</)	.	.	.	.
.	(>16E</	.	.	.	.
.	16G#X</	.	.	.	.
.	16B</JJ	.	.	.	.
[<4.AA 4.AAA\]	16c</LL)	.	4a/	-żną	.
.	(>16E</	.	.	.	.
.	16A</	.	.	.	.
.	16B</	.	.	.	.
.	16c</	.	8r	.	.
.	16A</JJ)	.	.	.	.
!!LO:LB:g=original
=20	=20	=20	=20	=20	=20
4.AA] [4.AAA\	(>16E</LL	.	4cc\	zmie-	.
.	16A</	.	.	.	.
.	16B</	.	.	.	.
.	16c</	.	.	.	.
!	!	!	!	!	!LO:HP:a
.	16e</	.	8a/	-niam	<
.	16E</JJ)	.	.	.	.
[<4.AA 4.AAA\]	(>16F</LL	.	8dd\	miej-	.
.	16A</	.	.	.	.
.	16B</	.	8ee\	-sca,	.
.	16d</	.	.	.	.
.	16f</	.	8ff\	wi-	[[
.	16A</JJ)	.	.	.	.
=21	=21	=21	=21	=21	=21
4.AA] 4.AAA\	(>16E</LL	.	4.ee\	-do-	.
.	16A</	<	.	.	<
.	16B</	.	.	.	.
.	16c</	.	.	.	.
.	16e</	.	.	.	.
.	16A</JJ)	.	.	.	.
4.GG 4.GGG\	(>16E</LL	.	8ee\	-ki,	.
.	16B-X</	.	.	.	.
.	16c</	.	8dd\	a-	.
.	16d</	.	.	.	.
.	16e</	.	8cc\	-le	.
.	16B-</JJ)	.	.	.	.
=22	=22	=22	=22	=22	=22
*^	*	*	*	*	*
!	!	!	!	!	!	!LO:DY:a
4ryy	[<4FF 4FFF/	(16A/LL	.	4ff\	zmie-	f
.	.	16c/	.	.	.	.
.	.	16f/	.	.	.	.
.	.	16g/	.	.	.	.
(8C/	8FF\_	16a/	.	8cc\	-niam	.
.	.	16c/JJ)	.	.	.	.
8D/L	4.FF\]	(16B-X/LL	.	8b-X\	zmie-	.
.	.	16d/	.	.	.	.
8C/	.	16e/	.	8cc\	-niam	.
.	.	16f/	.	.	.	.
8BB-X/J)	.	16b-X/	.	8dd\	na	.
.	.	16B-/JJ)	.	.	.	.
!!LO:LB:g=original
=23	=23	=23	=23	=23	=23	=23
!	!	!	!LO:HP:b:t=dimin.	!	!	!LO:HP:a:t=dimin.
2.C/	4FF\	(16A/LL	>	4.cc\	próż-	>
.	.	16c/	.	.	.	.
.	.	16f/	.	.	.	.
.	.	16g/	.	.	.	.
.	8CC\	16a/	.	.	.	.
.	.	16c/JJ)	.	.	.	.
.	4.FF\	(16A/LL	.	4a/	-no,	.
.	.	16c/	.	.	.	.
.	.	16f/	.	.	.	.
.	.	16g/	.	.	.	.
.	.	16a/	.	8r	.	.
.	.	16c/JJ)	.	.	.	.
*v	*v	*	*	*	*	*
=24	=24	=24	=24	=24	=24
*	*^	*	*	*	*
!	!	!	!	!	!	!LO:DY:a
(4C 4FF/	4ryy	16A\LL	pp	4cc\	zmie-	pp
.	.	16c\	.	.	.	.
.	.	16f\	.	.	.	.
.	.	16g\	.	.	.	.
8C 8EE/	(8a/	16a\	.	8cc\	-niam	.
.	.	16c\JJ	.	.	.	.
4C 4DD/	4a/	16A\LL	.	8cc\	miej-	.
!	!	!LO:TX:i:a:t=marcato	!	!	!	!
.	.	16c\	.	.	.	.
.	.	16A\	.	8cc\	-sca	.
.	.	16c\	.	.	.	.
8C 8EE/	8g/	16A\	.	8cc\	wi-	.
.	.	16c\JJ	.	.	.	.
=25	=25	=25	=25	=25	=25	=25
*	*	*	*^	*	*	*
4.C 4.FF/)	4f/	16A\LL	.	.	4.cc\	-do-	.
.	.	16c\	.	.	.	.	.
.	.	16A\	.	.	.	.	.
.	.	16c\	.	.	.	.	.
.	8e/	16A\	.	.	.	.	.
.	.	16c\JJ	.	.	.	.	.
4.C 4.FF/	4.d#X/)	16A\LL	.	.	8cc\	-ki,	.
!	!	!	!LO:HP:a	!	!	!	!
.	.	16c\	<	<	.	.	.
.	.	16B\	.	.	8r	.	.
.	.	16c\	.	.	.	.	.
.	.	16B\	.	.	8r	.	.
.	.	16A\JJ	[	.	.	.	.
*	*	*	*v	*v	*	*	*
!!LO:LB:g=original
=26	=26	=26	=26	=26	=26	=26
*ped	*	*	*	*	*	*
!	!	!	!	!	!	!LO:DY:a
8EE 8EEE/	16e/LL	8.e\L	f	(8e/L	a-	f
.	16E/	.	.	.	.	.
8D\L	16A/	.	.	8f/J)	.	.
.	16f/	16f\K	.	.	.	.
8C\J	16e/	8e\J	.	8e/	-le	.
.	16A/JJ	.	.	.	.	.
!	!	!	!	!	!	!LO:HP:a
8E\L	8a/L	16a\LL	<	8a/	zmie-	<
.	.	16c\	.	.	.	.
8A\	8cc/	16cc\	.	8cc\	-niam	.
.	.	16e\	.	.	.	.
8dn\J	8ff/J	16ff\	.	8ff\	na	[[
.	.	16a\JJ	[	.	.	.
=27	=27	=27	=27	=27	=27	=27
!	!	!	!	!	!	!LO:HP:a
4c\	4.ee/	16ee\LL	.	2.ee\	pró-	>
.	.	16cc\	.	.	.	.
*Xped	*	*	*	*	*	*
!	!LO:TX:i:a:t=poco rit.	!	!	!	!	!
.	.	16a\	.	.	.	]]
!	!	!	!	!LO:TX:i:a:t=poco rit.	!	!
.	.	16e\	.	.	.	.
[<8EE\	.	16c\	.	.	.	.
.	.	16A\JJ	.	.	.	.
4.G#X 4.EE\]	8.b/L	16b\LL	>	.	.	.
.	.	16d\	.	.	.	.
.	.	16e\	.	.	.	.
.	16cc/K	16cc\	.	.	.	.
.	8b/J	16b\	.	.	.	.
.	.	16d\JJ	]	.	.	.
*	*v	*v	*	*	*	*
=28	=28	=28	=28	=28	=28
!	!LO:TX:i:a:t=a tempo	!	!LO:TX:i:a:t=a tempo	!	!
4E 4AA/	16aKL 16c 16A/	pp	4a/	-żno.	.
.	8a 8A/	.	.	.	.
.	8a 8A/	.	.	.	.
8r	.	.	8r	.	.
.	8a 8A/	.	.	.	.
4r	.	.	4r	.	.
.	8a 8A/	.	.	.	.
.	8a 8A/	.	.	.	.
8r	.	.	8r	.	.
.	[16aJk [16A/	.	.	.	.
!!LO:PB:g=original
=29	=29	=29	=29	=29	=29
*	*^	*	*	*	*
!LO:TX:i:b:t=espressivo	!	!	!	!	!	!
(4G\	4r	16a]KL 16A\]	.	2.r	.	.
.	.	8a 8A\	.	.	.	.
.	.	8a 8A\	.	.	.	.
8F\	8r	.	.	.	.	.
.	.	8a 8A\	.	.	.	.
4E\	(4g/	.	.	.	.	.
.	.	8a 8A\	.	.	.	.
.	.	8a 8A\	.	.	.	.
8D\)	8f/)	.	.	.	.	.
.	.	[16aJk [16A\	.	.	.	.
=30	=30	=30	=30	=30	=30	=30
(4C#X/	4g/	16a]KL 16A\]	.	2.r	.	.
.	.	8a 8A\	.	.	.	.
.	.	8a 8A\	.	.	.	.
8BB-X/	8d/	.	.	.	.	.
.	.	8a 8A\	.	.	.	.
4AA/	4.c#X/	.	.	.	.	.
.	.	8a 8A\	.	.	.	.
.	.	8a 8A\	.	.	.	.
8AAA/)	.	.	.	.	.	.
.	.	[16aJk [16A\	.	.	.	.
*	*v	*v	*	*	*	*
=31	=31	=31	=31	=31	=31
!	!	!	!	!	!LO:DY:a
(4G\	16a]KL 16A/]	.	4ee\	Przez	p
.	8a 8A/	.	.	.	.
.	8a 8A/	.	.	.	.
8F\	.	.	8dd\	miejsc	.
.	8a 8A/	.	.	.	.
4E\	.	.	16dd\	ty-	.
.	8a 8A/	.	16cc#X\	-le,	.
.	.	.	8r	.	.
.	8a 8A/	.	.	.	.
8D\)	.	.	8b-X\	chwil	.
.	[16aJk [16A/	.	.	.	.
=32	=32	=32	=32	=32	=32
4C#X/	16a]KL 16A/]	.	8b-X\	ty-	.
.	8a 8e 8A/	.	.	.	.
.	.	.	8a/	-le...	.
.	8a 8e 8A/	.	.	.	.
8C#/	.	.	8r	.	.
.	8a 8e 8A/	.	.	.	.
4C#/	.	.	4r	.	.
.	8a 8e 8A/	.	.	.	.
.	8a 8e 8A/	.	.	.	.
8C#/	.	.	8r	.	.
.	16aJk 16e 16A/	.	.	.	.
!!LO:LB:g=original
=33	=33	=33	=33	=33	=33
4BB-X/	16r	.	4g/	ka-	.
.	8gL 8d/	.	.	.	.
.	8g 8d/	.	.	.	.
8BB-/	.	.	8g/	-żdy	.
.	8g 8d/	.	.	.	.
4AA/	.	.	8g/	dla	.
.	8g 8c#X/	.	.	.	.
.	.	.	8g/	mnie	.
.	8g 8c#/	.	.	.	.
8AA/	.	.	8g/	za-	.
.	[16gJk [16c#/	.	.	.	.
=34	=34	=34	=34	=34	=34
4BB-X/	16g]KL 16c#/]	.	4.g/	-ką-	.
.	8g 8d/	.	.	.	.
.	8g 8d/	.	.	.	.
8BB-/	.	.	.	.	.
.	8g 8d/	.	.	.	.
4AA/	.	.	4.g/	-tek,	.
.	8g 8cn/	.	.	.	.
.	8g 8c/	.	.	.	.
8AA/	.	.	.	.	.
.	[16gJk [16c/	.	.	.	.
=35	=35	=35	=35	=35	=35
!	!	!LO:HP:a:t=poco a poco cresc.:ext=s:last syllable with extention lines	!	!	!LO:HP:a:t=poco a poco cresc.:ext=s:last syllable with extention lines
4G 4GG/	16g]KL 16c/]	<	4g/	wszy-	<
.	8g 8B-X/	.	.	.	.
.	8g 8B-/	.	.	.	.
8G 8GG/	.	.	8g/	-stkie,	.
.	8g 8B-/	.	.	.	.
4F 4FF/	.	.	8g/	wsz-	.
.	8g 8A/	.	.	.	.
.	.	.	8g/	-stkie	.
.	8g 8A/	.	.	.	.
8F 8FF/	.	.	8g/	tu	.
.	[16gJk [16A/	.	.	.	.
=36	=36	=36	=36	=36	=36
*	*^	*	*	*	*
4E 4EE/	16g]KL 16A/]	4ryy	.	4.g/	chwi-	.
.	8g 8G/	.	.	.	.	.
.	8g 8G/	.	.	.	.	.
8E 8EE/	.	8ryy	.	.	.	.
.	8g 8G/	.	.	.	.	.
*ped	*	*	*	*	*	*
!	!	!LO:TX:i:b:t=m.d.	!	!	!	!
4D 4DD\	.	4.F</	.	4g/	-le	.
.	8g 8B-X/	.	.	.	.	.
.	8g 8B-/	.	.	.	.	.
8D 8DD\	.	.	.	8r	.	.
*Xped	*	*	*	*	*	*
.	16gJk 16B-/	.	.	.	.	.
!!LO:LB:g=original
=37	=37	=37	=37	=37	=37	=37
*ped	*	*	*	*	*	*
!	!	!LO:TX:i:b:t=m.d.	!	!	!	!
4C#X 4CC#X\	16r	4.E</	.	4g/	są	.
.	8gL 8A/	.	.	.	.	.
.	8g 8A/	.	.	.	.	.
8C# 8CC#\	.	.	.	8g/	bez	.
*Xped	*	*	*	*	*	*
.	16gJk 16A/	.	.	.	.	.
*ped	*	*	*	*	*	*
!	!	!LO:TX:i:b:t=m.d.	!	!	!	!
4BB-X 4BBB-X\	16r	4.E</	.	8g/	wra-	.
.	8gL 8d/	.	.	.	.	.
.	.	.	.	8f/	-żeń,	.
.	8g 8d/	.	.	.	.	.
8BB- 8BBB-\	.	.	.	8e/	pa-	.
*Xped	*	*	*	*	*	*
.	16gJk 16d/	.	.	.	.	.
=38	=38	=38	=38	=38	=38	=38
!	!	!LO:TX:i:b:t=m.d.	!	!	!	!
4AA 4AAA\	16r	4.E</	.	4.g/	-mią-	.
.	8gL 8c#X/	.	.	.	.	.
.	8g 8c#/	.	.	.	.	[ >
8AA 8AAA\	.	.	.	.	.	.
*Xped	*	*	*	*	*	*
.	16gJk 16c#/	.	[ >	.	.	.
*ped	*	*	*	*	*	*
4BB-X 4BBB-X\	16r	4.E</	.	4g/	-tek,	.
.	8gL 8d/	.	.	.	.	.
.	8g 8d/	.	.	.	.	.
8BB- 8BBB-\	.	.	]]	8r	.	]
*Xped	*	*	*	*	*	*
.	16gJk 16d/	.	.	.	.	.
=39	=39	=39	=39	=39	=39	=39
*ped	*	*	*	*	*	*
!	!	!	!	!	!	!LO:DY:a
4AA 4AAA\	16r	4.E</	p	4g/	są	p
.	8gL 8c#X/	.	.	.	.	.
.	8g 8c#/	.	.	.	.	.
8AA 8AAA\	.	.	.	8g/	bez	.
*Xped	*	*	*	*	*	*
.	16gJk 16c#/	.	.	.	.	.
*ped	*	*	*	*	*	*
4BB-X 4BBB-X\	16r	4E</	.	8g/	wra-	>
!	!LO:TX:i:a:t=ritard.	!	!	!	!	!
.	8gL 8d/	.	>	.	.	.
!	!	!	!	!LO:TX:i:a:t=ritard.	!	!
.	.	.	.	8e/	-żeń,	.
.	8g 8d/	.	.	.	.	.
8EE 8EEE\	.	8D</	.	8b-X\	pa-	]]
*Xped	*	*	*	*	*	*
.	16dJk 16G/	.	]]	.	.	.
*	*v	*v	*	*	*	*
=40	=40	=40	=40	=40	=40
*ped	*	*	*	*	*
!	!	!	!	!	!LO:DY:a
4AA 4AAA\	16r	pp	4.a/	-mią-	pp
.	8c#XL 8A 8C#X</	.	.	.	.
.	8c# 8A 8C#</	.	.	.	.
8AA 8AAA\	.	.	.	.	.
.	8c# 8A 8C#</	.	.	.	.
4AA 4AAA\	.	.	4a/	-tek.	.
.	8c# 8A 8C#</	.	.	.	.
.	8c# 8A 8C#</	.	.	.	.
8AA 8AAA\	.	.	8r	.	.
.	[16c#Jk [16A [16C#</	.	.	.	.
!!LO:LB:g=original
=41	=41	=41	=41	=41	=41
(<4.AA 4.AAA\	2.c#] 2.A] 2.C#X</]	.	2.r	.	.
*Xped	*	*	*	*	*
4.GG 4.GGG\	.	.	.	.	.
=42	=42	=42	=42	=42	=42
*	*^	*	*	*	*
!	!LO:TX:i:a:t=a tempo	!	!	!LO:TX:i:a:t=a tempo	!	!LO:DY:a
4.FF/ 4.FFF/)	4cn/	4.A\	mf	4cn/	I	mf
.	8a/	.	.	8a/	to	.
4.F 4.C 4.FF/	8a:/	4.c: 4.A:\	.	8a/	ser-	.
.	4f/	.	.	8f/	-ce	.
.	.	.	.	16r	.	.
.	.	.	.	16f/	o	.
=43	=43	=43	=43	=43	=43	=43
2.G: 2.C#X: 2.FF^:/	(4.e^/	2.e 2.c#X 2.B-X\	.	4.b-X^\	dzi-	.
.	4.b-X/)	.	.	4e/	-wo!	.
.	.	.	.	8r	.	.
*	*v	*v	*	*	*	*
=44	=44	=44	=44	=44	=44
*^	*	*	*	*	*
8r	2.FF\	8r	p	8r	.	.
!	!	!	!	!	!	!LO:DY:a
(8G'/L	.	(8eL 8c#X 8B-X'/	.	8e'/	jak	p
8F'/	.	8f 8c# 8B-'/	.	8f'/	czu-	.
8E'/	.	8g 8c# 8B-'/	.	8g'/	-ją-	.
8F'/	.	8f 8c# 8B-'/	.	8f'/	-ce	.
8G'/J)	.	8eJ 8c# 8B-'/)	.	8e'/	dziś	.
*v	*v	*	*	*	*	*
=45	=45	=45	=45	=45	=45
*	*^	*	*	*	*
2.F 2.FF/	4.a/	8r	.	4.a/	ma-	.
.	.	8cL 8A\	.	.	.	.
.	.	8cJ 8A\	.	.	.	.
.	4.f/	8r	.	4f/	-ło:	.
.	.	8cL 8A\	.	.	.	.
.	.	8cJ 8A\	.	8r	.	.
*	*v	*v	*	*	*	*
!!LO:PB:g=original
=46	=46	=46	=46	=46	=46
*^	*	*	*	*	*
!	!LO:N:vis=2.	!	!	!	!	!
2.AAA/	8AAA\L	8r	.	4cc\	in-	.
.	8AA\	8e-XL 8c 8F</	.	.	.	.
.	8AA\	8e- 8c 8F</	.	8a/	-dziej	.
.	8AA\	8e- 8c 8F</	.	8g/	bi-	.
!	!	!	!	!	!	!LO:HP:a:t=cresc. ed accel.
.	8AA\	8e- 8c 8F</	.	8en/	-ło	<
.	8AA\J	8e-J 8c 8F</	.	8f/	tak	.
=47	=47	=47	=47	=47	=47	=47
!	!LO:N:vis=2.	!	!	!	!	!
2.BBB-/	8BBB-X\L	8r	.	4.dd\	ży-	.
.	8BB-X\	8dL 8B-X 8E</	<	.	.	.
!	!	!LO:TX:i:b:t=marcato	!	!	!	!
.	8BB-\	8d 8B- 8F</	.	.	.	.
.	8BB-\	8d 8B- 8A</	[ >	4b-X\	-wo,	.
.	8BB-\	8d 8B- 8G</	.	.	.	.
.	8BB-\J	8dJ 8B- 8F</	]]	8r	.	.
=48	=48	=48	=48	=48	=48	=48
!	!LO:N:vis=2.	!	!	!	!	!LO:DY:a
2.CC/	8CC\L	8r	f	4ee-X\	tak	f
.	8C\	8e-XL 8A< 8F</	.	.	.	.
.	8C\	8e- 8A< 8F</	.	8cc\	pło-	.
.	8C\	8e- 8A< 8F</	.	8a/	-mien-	.
.	8C\	8e- 8A< 8F</	.	8g/	-nie	.
.	8C\J	8e-J 8A< 8F</	.	8f/	ko-	.
=49	=49	=49	=49	=49	=49	=49
!	!LO:N:vis=2.	!	!	!	!	!
2.DD/	8DD\L	8r	.	4.ff\	-cha-	.
.	8D\	8fL 8B-X 8En</	<	.	.	.
!	!	!LO:TX:i:b:t=marcato	!	!	!	!
.	8D\	8f 8B- 8F</	.	.	.	.
.	8D\	8f 8B- 8A</	[ >	4dd\	-ło!	.
.	8D\	8f 8B- 8G</	.	.	.	.
.	8D\J	8fJ 8B- 8F</	]]	8r	.	.
!!LO:LB:g=original
=50	=50	=50	=50	=50	=50	=50
!	!LO:N:vis=2.	!	!	!LO:TX:i:a:t=a tempo	!	!LO:DY:a
2.BBB-\	8BBB-X/L	8r	p	4dd\	in-	p
.	8BB-X/	8fL 8d 8G/	.	.	.	.
.	8BB-/	8f 8d 8G/	.	8b-X\	-dziéj	.
.	8BB-/	8f 8d 8G/	.	8a/	bi-	.
.	8BB-/	8f 8d 8G/	.	8g/	-ło	.
.	8BB-/J	8fJ 8d 8G/	.	8b-/	tak	.
=51	=51	=51	=51	=51	=51	=51
!	!LO:N:vis=2.	!	!	!	!	!
2.BBB-\	8BBB-X/L	8r	.	4.a/	ży-	.
.	8BB-X/	(8fnL 8d 8F#X'/	.	.	.	.
.	8BB-/	8f 8d 8G'/	.	.	.	.
.	8BB-/	8f 8d 8B-X'/	.	4g/	-wo,	.
.	8BB-/	8f 8d 8A'/	.	.	.	.
.	8BB-/J	8fJ 8d 8G'/)	.	8r	.	.
=52	=52	=52	=52	=52	=52	=52
!	!LO:N:vis=2.	!	!	!	!	!
2.BBB-\	8BBB-X/L	8r	.	4dd\	tak	.
.	8BB-X/	8fL 8d 8G/	.	.	.	.
.	8BB-/	8f 8d 8G/	.	8b-X\	pło-	.
.	8BB-/	8f 8d 8G/	.	8a/	-mien-	.
.	8BB-/	8f 8d 8G/	<	8g/	-nie	.
.	8BB-/J	8fJ 8d 8G/	.	8b-\	ko-	<
=53	=53	=53	=53	=53	=53	=53
!	!LO:N:vis=2.	!	!	!	!	!
2.BBBn\	8BBBn/L	8r	.	4.a/	-cha-	.
.	8BBn/	(8fnL 8d 8F#X'/	.	.	.	.
.	8BB/	8f 8d 8G'/	.	.	.	.
.	8BB/	8f 8d 8Bn'/	.	4g/	-ło,	.
.	8BB/	8f 8d 8A'/	.	.	.	.
.	8BB/J	8fJ 8d 8G'/)	.	8r	.	.
*v	*v	*	*	*	*	*
!!LO:LB:g=original
=54	=54	=54	=54	=54	=54
!	!	!	!LO:TX:i:a:t=agitato	!	!LO:DY:a
2.CC 2.CCC/	8r	f	4ff\	in-	f
!	!LO:TX:i:b:t=agitato	!	!	!	!
.	8fL 8c 8A/	.	.	.	.
.	8aJ 8f 8c/	.	8cc\	-dziéj	.
.	8gL 8d 8B-X/	.	8b-X\	bi-	.
.	8b-X 8g 8d/	.	8g/	-ło	.
.	8gJ 8e 8B-/	.	8dd\	tak	.
=55	=55	=55	=55	=55	=55
2.CC 2.CCC/	8fL 8A/	.	4.cc\	ży-	.
.	8b-X 8f 8d/	.	.	.	.
.	8aJ 8f 8c/	.	.	.	.
.	8gL 8e 8B-X/	.	4cc\	-wo,	.
.	8d< 8B-X< 8E</	.	.	.	.
.	8c<J 8B-< 8E</	.	8r	.	.
=56	=56	=56	=56	=56	=56
2.CC 2.CCC/	8r	.	4ff\	tak	.
.	8fL 8c 8A/	.	.	.	.
.	8aJ 8f 8c/	.	8cc\	pło-	.
.	8gL 8d 8B-X/	.	8b-X\	-mien-	.
.	8b-X 8g 8d/	.	8g/	-nie	.
.	8gJ 8e 8B-/	.	8dd\	ko-	.
=57	=57	=57	=57	=57	=57
2.CC 2.CCC/	8fL 8A/	.	4.cc\	-cha-	.
.	8b-X 8f 8d/	.	.	.	.
.	8aJ 8f 8c/	.	.	.	.
.	8gL 8e 8B-X/	.	4cc\	-ło,	.
.	8d< 8B-X< 8F</	.	.	.	.
.	8c<J 8B-< 8F</	.	8r	.	.
!!LO:LB:g=original
=58	=58	=58	=58	=58	=58
*	*	*	*^	*	*
*	*	*	*	*cue	*	*
!	!	!	!	!	!	!LO:DY:a
4.CC 4.CCC/	8r	ff	4aa\	4ff/	tak	ff
.	8fL 8c 8A/	.	.	.	.	.
.	8aJ 8f 8c/	.	8ff\	8cc/	pło-	.
8FL 8C\	8cL 8A/	.	8cc\	8a/	-mien-	.
8A 8F\	8f 8c/	.	8a\	8g/	-nie	.
*	*	*	*	*Xcue	*	*
8cJ 8A\	8aJ 8f/	.	8f/	8ryy	ko-	.
*	*	*	*v	*v	*	*
=59	=59	=59	=59	=59	=59
8B-XL 8F 8C\	8ddL 8g 8d/	.	([4.dd\	-cha-	.
8B- 8F 8C\	8dd 8g 8d/	.	.	.	.
8B-J 8F 8C\	8ddJ 8g 8d/	.	.	.	.
8B-L 8E 8C\	8ddL 8g 8d/	.	4dd\]	.	.
8B- 8E 8C\	8dd 8g 8d/	.	.	.	.
8B-J 8E 8C\	8ccJ 8g 8c/	.	8cc\)	.	.
=60	=60	=60	=60	=60	=60
*^	*^	*^	*	*	*
.	8qFFF/	.	.	.	.	.	.	.
!	!	!	!	!LO:HP:a:t=dimin.	!LO:HP:b	!	!	!
4r	[2.FF\	8fL 8c 8A/	4ryy	>	>	4.f/	-ło!	.
.	.	8f 8F/	.	.	.	.	.	.
8r	.	8fJ 8F/	4ryy	.	.	.	.	.
8r	.	8fL 8F/	.	.	.	4r	.	.
(8BB-X'/L	.	8f/	(8G'\L	.	] p	.	.	.
8D'/J	.	8f/J	8B-X'\J	.	.	8r	.	.
*	*	*	*	*v	*v	*	*	*
=61	=61	=61	=61	=61	=61	=61	=61
[4.C/)	4FF\]	8f/L	4.A'\)	.	2.r	.	.
.	.	8f 8F/	.	.	.	.	.
.	8CC\	8fJ 8F/	.	.	.	.	.
8C/L]	[4.FF\	8fL 8F/	8ryy	.	.	.	.
8BB-X'/	.	8f/	(8G'\L	.	.	.	.
8D-X'/J	.	8f/J	8B-X'\J	.	.	.	.
=62	=62	=62	=62	=62	=62	=62	=62
2.C/	4FF\]	(8f'/L	4.A'\)	>	2.r	.	.
.	.	8f'/	.	.	.	.	.
.	(8CC\	8f'/J	.	.	.	.	.
.	4FF\)	8f'/L	4.A\	.	.	.	.
.	.	8f'/	.	.	.	.	.
.	(8CC\	8f'/J)	.	]	.	.	.
*v	*v	*	*	*	*	*	*
*	*v	*v	*	*	*	*
=63	=63	=63	=63	=63	=63
2.FF;</)	2.A 2.F;/	pp	2.r;	.	.
!!LO:PB:g=original
=64	=64	=64	=64	=64	=64
*^	*	*	*	*	*
!	!	!	!	!LO:TX:i:a:t=Più lento.	!	!LO:DY:a
2.C/	(4.FF\	2.A 2.F/	pp	4a/	Ach!	pp
.	.	.	.	8a/	przed	.
.	4.EE\	.	.	8a/	mo-	.
.	.	.	.	8a/	-krą	.
.	.	.	.	8a/	po-	.
=65	=65	=65	=65	=65	=65	=65
2.C/	4.DD\	2.A 2.F/	.	4.a/	-wie-	.
.	4.EE\)	.	.	4a/	-ką	.
.	.	.	.	8r	.	.
=66	=66	=66	=66	=66	=66	=66
2.C/	(4.FF\	4.A 4.F/	.	4a/	da-	.
.	.	.	.	8a/	-rmo	.
.	4.EE\	4.A 4.F/	.	(8a'/	dzień	.
.	.	.	.	8bn'\	mi	.
.	.	.	.	8cc'\)	tu	.
=67	=67	=67	=67	=67	=67	=67
2.C/	4.DD\	2.A 2.F/	.	4.b\	pło-	.
.	4.EE\)	.	.	4a/	-nie,	.
.	.	.	.	8r	.	.
*v	*v	*	*	*	*	*
!!LO:LB:g=original
=68	=68	=68	=68	=68	=68
4.C 4.FF\	4.A< 4.F</	.	4a/	wzrok,	.
.	.	<	8a/	jak	.
4.C 4.FF\	4.A< 4.E</	.	8a/	pie-	<
.	.	.	8a/	-śni...	.
.	.	.	16r	.	.
!	!	!	!LO:TX:B:a:t=Tempo I.	!	!
.	.	.	16a/	da-	.
=69	=69	=69	=69	=69	=69
!	!LO:TX:B:a:t=Tempo I.	!	!	!	!
8BBL 8FF#X\	8A<L 8D#X</	<	4.b\	-le-	.
8BB 8FF#\	8A< 8D#</	.	.	.	.
8BBJ 8FF#\	8A<J 8D#</	.	.	.	.
.	.	.	16qqddn/LL	.	.
.	.	.	16qqcc/JJ	.	.
8BBL 8FF#\	8A<L 8D#</	.	4b\	-ko	.
8BB 8FF#\	8A< 8D#</	.	.	.	.
8BBJ 8FF#\	8A<J 8D#</	[[	8r	.	.
=70	=70	=70	=70	=70	=70
*^	*	*	*	*	*
*ped	*	*	*	*	*	*
!	!LO:N:vis=2.	!	!	!	!	!LO:DY:a
2.BBB/	8BBB\L	8r<	.	4b\	wie-	<
.	8BB\	8B<L 8A< 8D#X</	.	.	.	.
.	8C#X\J	8B<J 8A< 8E</	.	8b\	-cznie	.
.	8D#X\L	8B<L 8A< 8F#X</	.	8b\	w je-	.
.	8D#\	8B< 8A< 8F#</	.	8a#X/	-dnéj	[[
*Xped	*	*	*	*	*	*
.	8D#\J	8B<J 8A< 8F#</	.	8b\	tkwi	.
*v	*v	*	*	*	*	*
=71	=71	=71	=71	=71	=71
*ped	*	*	*	*	*
!	!	!	!	!	!LO:DY:a
8EEL 8EEE/	8r	f	4.gg\	stro-	f
8E/	8gL 8B/	<	.	.	.
8F#X/J	8aJ 8B/	.	.	.	.
8G\L	8bL 8e 8B/	.	4ee\	-nie,	.
8G\	8b 8e 8B/	.	.	.	.
*Xped	*	*	*	*	*
8G\J	8bJ 8e 8B/	[[	8r	.	.
!!LO:LB:g=original
=72	=72	=72	=72	=72	=72
(8A'\L	(8ccL 8g 8e'/	.	4ee\	wzrok,	.
8A'\	8cc 8g 8e'/	.	.	.	.
8A'\J)	8ccJ 8g 8e'/)	.	8ee\	jak	.
(8D'\L	(8ccL 8f#X 8d'/	.	8ee\	pie-	.
8D'\	8b 8f# 8d'/	.	8dd\	-śni	.
8D'\J)	8aJ 8f# 8c'/)	.	8cc\	da-	.
=73	=73	=73	=73	=73	=73
8G/L	8gL 8B/	.	4.b\	-le-	.
8G/	8g 8B/	.	.	.	.
8GG/J	8gJ 8d 8B/	.	.	.	.
8AA/L	8f#XL 8c 8A/	.	4a/	-ko,	.
8AA/	8f# 8c 8A/	.	.	.	.
8AA/J	8f#J 8c 8A/	.	8r	.	.
=74	=74	=74	=74	=74	=74
8BB\L	8eL 8B 8G/	.	(8b\L	wie-	.
8BB\	8e 8B 8G/	.	8dd\J)	.	.
8BB\J	8eJ 8A< 8F#X</	.	8cc\	-cznie	.
8BB\L	8eL 8B< 8G</	.	8b\	w je-	.
8BB\	8e 8B< 8G</	.	8g/	-dnéj	.
8BB\J	8eJ 8B< 8G</	.	8e/	tkwi	.
=75	=75	=75	=75	=75	=75
*	*^	*	*	*	*
!	!	!	!	!	!	!LO:DY:a
2.BB 2.BBB\	[4.c/	8r	.	([4.a/	stro-	>
.	.	8eL 8F#X<\	>	.	.	.
.	.	8eJ 8F#<\	.	.	.	.
.	4c/]	8d#XL 8F#<\	.	4a/]	.	.
.	.	8d# 8F#<\	.	.	.	.
.	(<16B/LL	8d#J 8F#<\	.	16g/LL	.	.
.	16A/JJ	.	]	16f#X/JJ)	.	]]
*	*v	*v	*	*	*	*
!!LO:LB:g=original
=76	=76	=76	=76	=76	=76
[<2.EE [2.EEE\	8eL 8G</)	.	4.e/	-nie.	.
.	8e 8E</	pp	.	.	.
.	8eJ 8E</	.	.	.	.
.	8eL 8E</	.	4r	.	.
.	8e 8E</	.	.	.	.
.	8eJ 8E</	.	8r	.	.
=77	=77	=77	=77	=77	=77
*^	*^	*^	*	*	*
8EE] 8EEE\]	8ryy	8eL 8E</	8ryy	.	.	2.r	.	.
!	!	!	!	!	!LO:HP:b=2	!	!	!
(8FF#X\L	8E/L	(8e'/	(8A\L	<	<	.	.	.
8GG#X\J	8E/J	8e'/J	8B\J	.	.	.	.	.
!	!	!	!	!	!LO:HP:b=2	!	!	!
8BB\L	8E/L	8e'/L	8d\L	[ >	[ >	.	.	.
8.AA\	8E/	8e'/	8.c\	.	.	.	.	.
.	8E/J	8e'/J)	.	]]	]]	.	.	.
16GG#\Jk)	.	.	16B\Jk)	.	.	.	.	.
*	*v	*v	*	*v	*v	*	*	*
*v	*v	*	*	*	*	*
=78	=78	=78	=78	=78	=78
*	*^	*	*	*	*
*ped	*	*	*	*	*	*
4.GG#X\	(8e'/L	2.B\	.	2.r	.	.
.	8e 8E<'/	.	.	.	.	.
.	8eJ 8E<'/	.	.	.	.	.
[<4.EEE\	8eL 8E<'/	.	.	.	.	.
.	8e 8E<'/	.	.	.	.	.
.	8eJ 8E<'/)	.	.	.	.	.
=79	=79	=79	=79	=79	=79	=79
*^	*	*	*^	*	*	*
*Xped	*	*	*	*	*	*	*	*
8EEE\]	8ryy	(>8eL 8E<'>/	8ryy	.	.	2.r	.	.
!	!	!	!	!	!LO:HP:b=2	!	!	!
(<8FF#X\L	8EL/	8e'/	(8A\L	<	<	.	.	.
8GG#X\J	8EJ/	8e'/J	8B\J	.	.	.	.	.
!	!	!	!	!	!LO:HP:b=2	!	!	!
8BB\L	8EL/	8e'/L	8d\L	[ >	[ >	.	.	.
8.AA\	8E/	8e'/	8.c\	.	.	.	.	.
.	8EJ/	8e'/J)	.	]]	]]	.	.	.
16GG#\Jk)	.	.	16B\Jk)	.	.	.	.	.
*	*	*	*	*v	*v	*	*	*
!!LO:PB:g=original
=80	=80	=80	=80	=80	=80	=80	=80
4.GG#X\	8E/	(8e'/L	2.B\	.	2.r	.	.
.	8ryy	8e 8E<'/	.	.	.	.	.
.	2ryy	8eJ 8E<'/	.	.	.	.	.
4.EEE\	.	8eL 8E<'/	.	.	.	.	.
.	.	8e 8E<'/	.	.	.	.	.
.	.	8eJ 8E<'/)	.	.	.	.	.
*v	*v	*	*	*	*	*	*
=81	=81	=81	=81	=81	=81	=81
(4AA'\	(4c'/	8E</L	.	(4e'/	Ku	.
.	.	8E</	.	.	.	.
8GG#X'\	8B'/	8E</J	.	8e'/	niéj	.
8FF#X'\L	8A'/L	8E</L	.	8e'/	tę-	.
8GG#'\	8B'/	8E</	.	8e'/	-sknię	.
8BB'\J)	8d'/J)	8E</J	.	8e'/)	z wie-	.
=82	=82	=82	=82	=82	=82	=82
2.AA\	8cL 8A/	4E</	.	(4e/	-czo-	.
.	8c 8A/	.	.	.	.	.
.	.	.	.	8qg/	.	.
.	8cJ 8A/	8Fn</	.	8f/)	.	.
.	8cL 8A/	4.E</	.	4.e/	-ra,	.
.	8c 8A/	.	.	.	.	.
.	8cJ 8A/	.	.	.	.	.
=83	=83	=83	=83	=83	=83	=83
(<4D 4DD\	(4B/	8A<L 8F</	<	8r	.	.
!	!	!	!	!	!	!LO:DY:a
.	.	8A< 8F</	.	8d/	z ju-	<
8C 8CC\	8c/	8A<J 8F</	.	8e/	-trznią	.
4.BB 4.BBB\)	4.d/)	8A<L 8F</	[[	8f/	tę-	[[
.	.	8A< 8F</	.	8.b^>/	-sknię	.
.	.	8A<J 8F</	.	.	.	.
.	.	.	.	16a/	i	.
!!LO:LB:g=original
=84	=84	=84	=84	=84	=84	=84
*^	*	*	*	*	*	*
4.ryy	4.EE\	(>8c'/L	8A<L 8E</	<	4.a/	pła-	.
.	.	8d'/	8B< 8A</	.	.	.	.
.	.	8d#X'/J	8c<J 8A-X</	[	.	.	.
8BB\L	4.EE\	4e/)	8G#X</L	<	4g#X/	-czę,	.
8C\	.	.	8A-</	[ >	.	.	.
8BB\J	.	8r	8G#</J	]	8r	.	.
*v	*v	*	*	*	*	*	*
*	*v	*v	*	*	*	*
=85	=85	=85	=85	=85	=85
[4.CC/	8c<L 8A< 8E</	.	4cc\	bom	.
.	8e< 8c< 8A</	.	.	.	.
.	8c<J 8A< 8E</	.	8g#X/	po-	.
4.C 4.CC/]	8e<L 8c< 8A</	.	8b/	-że-	.
.	8c< 8A< 8E</	.	8a/	-gnał	.
.	8e<J 8c< 8A</	.	8e/	nie	.
=86	=86	=86	=86	=86	=86
2.DD 2.DDD\	8c#X<L 8B-X< 8E</	.	4.gn/	wczo-	.
.	8e< 8c#< 8B-</	.	.	.	.
.	8c#<J 8B-< 8E</	.	.	.	.
.	8f<L 8d< 8B-</	.	4f/	-ra,	.
.	8d< 8A< 8F</	.	.	.	.
.	8f<J 8d< 8B-</	.	8r	.	.
=87	=87	=87	=87	=87	=87
[4.EEE<\	8cn<L 8A< 8E</	<	4e/	i	<
.	8e< 8c< 8A</	.	.	.	.
.	8c<J 8A< 8E</	.	8a/	nie	.
4.EE 4.EEE\]	8e<L 8c< 8A</	.	8a/	ju-	.
.	8e< 8B< 8G#X</	.	8g#X/	-tro	.
.	8g#XJ 8d 8B/	.	8b\	o-	.
!!LO:LB:g=original
=88	=88	=88	=88	=88	=88
2.AA 2.AAA/	8bL 8f 8d/	.	4.dd\	-ba-	.
.	8g#X 8d 8B/	.	.	.	.
.	8bJ 8f 8d/	.	.	.	.
.	8aL 8e 8c/	.	4cc\	-czę,	.
.	8cc 8a 8e/	.	.	.	.
.	8aJ 8e 8c/	.	8r	.	.
=89	=89	=89	=89	=89	=89
!	!	!	!	!	!LO:DY:a
[<4.CC\	8rb	f	4ee\	bom	f
.	8c<L 8A< 8E</	.	.	.	.
.	8eJ 8c 8A/	.	8cc\	po-	.
4.C 4.CC\]	8aL 8e 8c/	.	8b\	-że-	.
.	8e 8c 8A/	.	8a/	-gnał	.
.	8c<J 8A< 8E</	.	8e/	nie	.
=90	=90	=90	=90	=90	=90
2.DD 2.DDD\	8c#X<L 8B-X< 8E</	.	4.g/	wczo-	.
.	8e< 8c#< 8B-</	.	.	.	.
.	8c#<J 8B-< 8E</	.	.	.	.
.	8f<L 8d< 8A</	.	4f/	-ra	.
.	8d< 8A< 8F</	.	.	.	.
.	8f<J 8d< 8A</	.	8r	.	.
=91	=91	=91	=91	=91	=91
2.EE 2.EEE\	8rb	.	8r	.	.
.	8cn<L 8A< 8E</	<	8e/	i	<
.	8eJ 8c 8A/	.	8a/	nie	.
.	8aL 8e 8c/	.	8cc\	ju-	.
.	8e 8c 8A/	[	8b\	-tro	[[
!	!	!	!	!	!LO:HP:a:t=cres
.	8cJ 8A 8E</	.	8a/	o-	<
!!LO:LB:g=original
=92	=92	=92	=92	=92	=92
*	*^	*	*	*	*
!	!	!	!	!	!	!LO:DY:a
2.E 2.EE\	[4.f/	8d<L 8B< 8A</	ff	([4.ff\	-ba-	ff
.	.	8d< 8B< 8A</	.	.	.	.
.	.	8d<J 8B< 8A</	.	.	.	.
!	!LO:TX:i:a:t=rit.	!	!	!LO:TX:i:a:t=rit.	!	!
.	4f/]	8d<L 8B< 8G#X</	.	4ff\]	.	.
.	.	8d< 8B< 8G#</	.	.	.	.
.	8e/	8d<J 8B< 8G#</	.	8ee\)	.	.
*	*v	*v	*	*	*	*
=93	=93	=93	=93	=93	=93
!	!	!	!LO:TX:i:a:t=a tempo	!	!
[<2.EE [2.AAA\	8A< 8E< 8C</	.	4.a/	-czę.	.
!	!LO:TX:i:a:t=a tempo	!LO:HP:b:t=dimin.	!	!	!
.	(8aL 8A'/	>	.	.	.
.	8aJ 8A'/	.	.	.	.
.	8aL 8A'/	.	4r	.	.
.	8a 8A'/	.	.	.	.
.	8aJ 8A'/)	.	8r	.	.
=94	=94	=94	=94	=94	=94
*^	*^	*	*	*	*
8r	8EE] 8AAA\]	8aL 8A/	8ryy	p	2.r	.	.
!LO:TX:i:b:t=espress.	!	!	!	!	!	!	!
8A/L	(8D#X'\L	8a/	(8B'\L	.	.	.	.
8A/J	8E'\J	8a/J	8c'\J	.	.	.	.
8A/L	8Gn'\L	8a/L	8e'\L	.	.	.	.
8A/	8.F'\	8a/	8.d'\	.	.	.	.
8A/J	.	8a/J	.	.	.	.	.
.	16E'\Jk)	.	16c'\Jk)	.	.	.	.
=95	=95	=95	=95	=95	=95	=95	=95
8A/L	4.E\	(8a'/L	4.c\	.	2.r	.	.
8A/	.	8a'/	.	.	.	.	.
8A/J	.	8a'/J)	.	.	.	.	.
4.ryy	4.EE/	(8aL 8A'/	4.c\	.	.	.	.
.	.	8a 8A'/	.	.	.	.	.
.	.	8aJ 8A'/)	.	.	.	.	.
*v	*v	*	*	*	*	*	*
*	*v	*v	*	*	*	*
=96	=96	=96	=96	=96	=96
2.EE 2.AAA;/	2.a 2.c 2.A;/	.	2.r;	.	.
==	==	==	==	==	==
*-	*-	*-	*-	*-	*-
!!!system-decoration: p1{(p2)}
!!!ENC: Berenika Jozajtis
!!!END: 2022-08-18
!!!ENC: Kamil Watkowski
!!!END: 2022-09-22
!!!RDF**kern: > = above
!!!RDF**kern: < = below
!!!YEC: Copyright 2022 Narodowy Instytut Fryderyka Chopina (https://polishscores.org)
!!!YEM: License CC-BY-4.0 (https://creativecommons.org/licenses/by/4.0)
